symbols/web/dark_mode/materialsymbolsoutlined/dark_mode_wght600grad200fill1_20px.svg

<svg xmlns="http://www.w3.org/2000/svg" height="20" width="20"><path d="M10 17.854q-3.271 0-5.562-2.292Q2.146 13.271 2.146 10q0-3.271 2.292-5.573Q6.729 2.125 10 2.125q.208 0 .427.01.219.011.49.053-.709.77-1 1.687-.292.917-.292 1.687 0 1.896 1.375 3.365 1.375 1.469 3.521 1.469.979 0 1.791-.344.813-.344 1.5-.969.021.229.042.511.021.281.021.385 0 3.271-2.302 5.573-2.302 2.302-5.573 2.302Z"/></svg>

<svg xmlns="http://www.w3.org/2000/svg" height="20" width="20"><path d="M10 17.854Q6.729 17.854 4.438 15.562Q2.146 13.271 2.146 10Q2.146 6.729 4.438 4.427Q6.729 2.125 10 2.125Q10.208 2.125 10.427 2.135Q10.646 2.146 10.917 2.188Q10.208 2.958 9.917 3.875Q9.625 4.792 9.625 5.562Q9.625 7.458 11 8.927Q12.375 10.396 14.521 10.396Q15.5 10.396 16.312 10.052Q17.125 9.708 17.812 9.083Q17.833 9.312 17.854 9.594Q17.875 9.875 17.875 9.979Q17.875 13.25 15.573 15.552Q13.271 17.854 10 17.854Z"/></svg>
